frontend/public/svg/e-commerce/unbox.svg

<svg width="160" height="152" viewBox="0 0 160 152" fill="none" xmlns="http://www.w3.org/2000/svg">
<path d="M138.184 97.8078C139.094 105.535 139.956 112.648 140.752 119.768C140.888 120.982 140.683 122.23 140.769 123.453C141.073 127.743 138.691 130.153 135.03 131.556C126.245 134.924 117.506 138.436 108.606 141.476C98.8597 144.804 88.9733 147.733 79.098 150.669C77.3869 151.144 75.5814 151.167 73.8585 150.734C56.5969 146.248 39.5624 141.055 23.1238 134.055C20.5156 133.047 17.9883 131.84 15.5641 130.446C14.2359 129.494 13.1891 128.201 12.5343 126.704C11.9843 125.56 12.0219 124.072 12.0193 122.736C11.9989 114.088 11.979 105.439 12.1122 96.7925C12.1933 96.1387 12.0667 95.4759 11.7497 94.8983C11.4328 94.3214 10.9417 93.8586 10.3467 93.5757C8.38915 92.479 6.52967 91.2156 4.78835 89.7998C1.22903 86.7964 0.702511 83.2443 3.20776 79.3155C4.23007 77.8427 5.39266 76.4722 6.67917 75.2232C10.0049 71.7446 13.3855 68.3245 16.8556 64.7673C12.9674 61.2822 9.29076 57.9948 5.62448 54.696C4.58526 53.8387 3.60305 52.9147 2.68409 51.9296C0.202479 49.024 0.530055 46.1538 3.57021 43.7969C5.16643 42.5597 6.85182 41.434 8.46903 40.227C20.967 30.8841 33.4376 21.5051 45.9697 12.208C48.4303 10.4403 50.983 8.80433 53.6173 7.30762C56.7769 5.44886 59.7585 5.75548 62.605 8.19177C66.1026 11.1853 69.7117 14.0477 73.292 16.9428C74.2424 17.7114 75.2611 18.3926 76.4595 19.2656C78.0584 17.4521 79.589 15.6971 81.1405 13.961C84.2089 10.5279 87.2839 7.09994 90.3654 3.67691C93.2532 0.465455 95.2019 -0.173334 98.9529 1.81078C105.785 5.42523 112.651 9.03923 119.147 13.2063C131.14 20.8993 142.878 28.9891 154.717 36.9223C155.369 37.3611 155.992 37.842 156.581 38.3622C159.472 40.9094 159.797 43.5789 157.307 46.6007C153.304 51.4675 148.983 56.0322 143.707 59.5823C143.344 59.8265 143.022 60.1312 142.428 60.613C146.05 64.425 149.572 68.1558 153.126 71.8582C154.373 73.1538 155.773 74.3037 156.957 75.6492C160.083 79.2019 160.034 82.6996 156.846 86.1762C154.391 88.9637 151.386 91.2123 148.019 92.7816C144.559 94.3417 141.243 96.2326 138.184 97.8078ZM129.5 62.2019C128.109 61.371 127.187 60.8025 126.248 60.2623C114.692 53.6071 103.155 46.9183 91.5638 40.3254C87.4768 38.0013 83.1909 36.0245 79.1177 33.6774C76.9236 32.4127 75.284 32.8286 73.3045 34.1367C61.242 42.1197 49.1128 50.0025 36.9935 57.8962C33.9231 59.8968 30.8068 61.8263 27.4634 63.9456C28.2733 64.4706 28.7144 64.8042 29.1981 65.0615C43.6724 72.6884 58.1926 80.2285 72.5957 87.9864C75.8045 89.7145 78.4948 90.1595 81.3558 87.6182C82.169 87.0209 83.0505 86.5221 83.9812 86.1329C97.3777 79.1074 110.776 72.084 124.175 65.064C125.834 64.1944 127.475 63.2914 129.5 62.2019ZM81.6892 25.7751C100.198 35.6629 117.443 46.8001 136.038 55.3994L147.727 43.5853C147.337 43.1704 146.92 42.7814 146.48 42.4204C135.503 35.0359 124.577 27.5733 113.51 20.328C108.83 17.2642 103.854 14.6516 99.0047 11.8516C97.4952 10.9794 96.2114 10.9984 94.8508 12.4266C90.5997 16.8812 86.216 21.2031 81.6892 25.7745V25.7751ZM19.8315 99.5189C20.6336 108.059 21.3669 115.753 22.0678 123.451C22.0842 124.013 22.286 124.555 22.6421 124.991C22.9983 125.426 23.4889 125.732 24.0368 125.859C24.9951 126.168 25.9119 126.6 26.859 126.954C40.839 132.183 55.2411 136.005 69.6671 139.741C70.496 139.884 71.3329 139.97 72.173 139.998V105.919C70.0071 108.297 68.3787 110.302 66.5232 112.072C64.6493 113.998 62.5733 115.716 60.3316 117.197C57.3295 119.016 53.9847 119.347 50.749 117.516C42.2603 112.714 33.7827 107.891 25.3159 103.047C23.6803 102.112 22.1425 101.014 19.8315 99.5182V99.5189ZM131.305 101.488C129.638 102.233 128.816 102.557 128.033 102.957C119.754 107.182 111.428 111.327 103.231 115.705C100.387 117.224 97.8548 117.245 95.3936 115.372C91.3807 112.317 87.4775 109.121 83.5316 105.979C82.7118 105.326 81.9111 104.65 80.9449 103.856C81.5914 116.312 82.2169 128.358 82.849 140.566C83.6628 140.352 84.4242 140.203 85.1462 139.953C89.8009 138.342 94.476 136.782 99.092 135.065C108.638 131.514 118.151 127.88 127.674 124.266C128.932 123.789 130.102 123.342 130.181 121.569C130.47 115.083 130.895 108.604 131.305 101.483V101.488ZM9.77849 83.7044L56.8345 109.981L70.6975 97.0517L21.8826 69.1449L9.77849 83.7044ZM85.8609 95.3912C89.9762 98.5875 93.8512 101.461 97.5588 104.535C99.4327 106.088 100.976 106.357 103.237 105.152C116.982 97.8275 130.812 90.6616 144.608 83.4314C145.567 82.9293 146.478 82.336 147.339 81.828L136.378 66.9593L85.8609 95.3912ZM56.532 15.9018C41.0372 25.4187 27.5219 37.3738 13.2675 47.2747L24.2939 58.7913L70.0701 27.8374L56.532 15.9018Z" fill="black"/>
</svg>

<svg xmlns="http://www.w3.org/2000/svg" width="160" height="152" fill="none" viewBox="0 0 160 152"><path fill="#000" d="M138.184 97.808c.91 7.727 1.772 14.84 2.568 21.96.136 1.214-.069 2.462.017 3.685.304 4.29-2.078 6.7-5.739 8.103-8.785 3.368-17.524 6.88-26.424 9.92-9.746 3.328-19.633 6.257-29.508 9.193a10.25 10.25 0 0 1-5.24.065c-17.261-4.486-34.296-9.679-50.734-16.679a55 55 0 0 1-7.56-3.609 9.1 9.1 0 0 1-3.03-3.742c-.55-1.144-.512-2.632-.515-3.968-.02-8.648-.04-17.297.093-25.943a3.135 3.135 0 0 0-1.765-3.217A39 39 0 0 1 4.788 89.8C1.23 86.796.703 83.244 3.208 79.316a28 28 0 0 1 3.471-4.093c3.326-3.478 6.707-6.898 10.177-10.456-3.889-3.485-7.565-6.772-11.232-10.071a31 31 0 0 1-2.94-2.766C.202 49.024.53 46.154 3.57 43.797c1.596-1.237 3.282-2.363 4.899-3.57 12.498-9.343 24.969-18.722 37.5-28.019a86 86 0 0 1 7.648-4.9c3.16-1.86 6.142-1.553 8.988.884 3.498 2.993 7.107 5.856 10.687 8.75.95.77 1.97 1.45 3.168 2.324 1.598-1.814 3.129-3.569 4.68-5.305q4.604-5.15 9.225-10.284c2.888-3.212 4.837-3.85 8.588-1.866 6.832 3.614 13.698 7.228 20.194 11.395 11.993 7.693 23.731 15.783 35.57 23.716q.98.66 1.864 1.44c2.891 2.547 3.216 5.217.726 8.239-4.003 4.867-8.324 9.431-13.6 12.981-.363.245-.685.55-1.279 1.031 3.622 3.812 7.144 7.543 10.698 11.245 1.247 1.296 2.647 2.446 3.831 3.791 3.126 3.553 3.077 7.05-.111 10.527a26.9 26.9 0 0 1-8.827 6.606c-3.46 1.56-6.776 3.45-9.835 5.026M129.5 62.202c-1.391-.831-2.313-1.4-3.252-1.94-11.556-6.655-23.093-13.344-34.684-19.937-4.087-2.324-8.373-4.3-12.446-6.648-2.194-1.264-3.834-.848-5.813.46-12.063 7.983-24.192 15.865-36.312 23.76-3.07 2-6.186 3.93-9.53 6.049.81.525 1.251.858 1.735 1.115 14.474 7.627 28.995 15.167 43.398 22.925 3.209 1.728 5.899 2.173 8.76-.368a12.7 12.7 0 0 1 2.625-1.485q20.096-10.539 40.194-21.069c1.659-.87 3.3-1.773 5.325-2.862M81.69 25.775c18.508 9.888 35.753 21.025 54.348 29.624l11.689-11.814q-.586-.623-1.247-1.165c-10.977-7.384-21.903-14.847-32.97-22.092-4.68-3.064-9.656-5.676-14.505-8.476-1.51-.873-2.794-.854-4.154.575-4.251 4.454-8.635 8.776-13.162 13.348M19.831 99.52c.802 8.54 1.535 16.234 2.236 23.932a2.55 2.55 0 0 0 1.969 2.408c.958.309 1.875.741 2.822 1.095 13.98 5.229 28.382 9.051 42.808 12.787q1.245.215 2.506.257V105.92c-2.166 2.378-3.794 4.383-5.65 6.153a37.4 37.4 0 0 1-6.191 5.125c-3.002 1.819-6.347 2.15-9.583.319a6029 6029 0 0 1-25.433-14.469c-1.636-.935-3.174-2.033-5.485-3.529m111.473 1.969c-1.667.745-2.489 1.069-3.272 1.469-8.279 4.225-16.605 8.37-24.802 12.748-2.844 1.519-5.376 1.54-7.837-.333-4.013-3.055-7.916-6.251-11.862-9.393-.82-.653-1.62-1.329-2.587-2.123.646 12.456 1.272 24.502 1.904 36.71.814-.214 1.575-.363 2.297-.613 4.655-1.611 9.33-3.171 13.946-4.888 9.546-3.551 19.059-7.185 28.582-10.799 1.258-.477 2.428-.924 2.507-2.697.289-6.486.714-12.965 1.124-20.086zM9.778 83.704l47.057 26.277 13.863-12.93-48.815-27.906zm76.083 11.687c4.115 3.197 7.99 6.07 11.698 9.144 1.874 1.553 3.417 1.822 5.678.617 13.745-7.324 27.575-14.49 41.371-21.72.959-.503 1.87-1.096 2.731-1.604l-10.961-14.869zm-29.329-79.49c-15.495 9.518-29.01 21.473-43.264 31.374L24.293 58.79 70.07 27.837z"/></svg>
